X:1
T:Pacific Palisades, 11.10.11.10
T:Pacific Palisades, 11.10.11.10
T:Daniel Brink Towner, 1899
T:Public Domain Courtesy of the Cyber Hymnal™
C:Daniel Brink Towner, 1899
Z:Public Domain
Z:Courtesy of the Cyber Hymnal™
%%score ( 1 2 ) ( 3 4 )
L:1/8
Q:1/4=100
M:9/8
K:C
V:1 treble 
V:2 treble 
V:3 bass 
V:4 bass 
V:1
 [EG][^D^F][EG] | [Ec]3 [EG]2 [CE] [EG][DF][B,D] | [DF]3 [CE]3 [B,D][CE][C^F] | %3
 [B,G]3 [DB]2 [GB] [Ac][GB][^FA] | G3 [FG]3 [EG][^D^F][EG] | [Ec]3 [EG]2 [CE] [EG][DF][B,D] | %6
 [DF]3 [CE]3 [DF][DG][FA] | [EG]3 [Ec]2 [Ec] [FB][FA][FB] | [Ec]6 |] %9
V:2
 x3 | x9 | x9 | x9 | G3 x6 | x9 | x9 | x9 | x6 |] %9
V:3
 [C,C][C,C][C,C] | [C,C]3 [C,C]2 [C,C] [G,C][G,B,]G, | [C,G,]3 [C,G,]3 [D,^F,][D,G,][D,A,] | %3
 G,3 G,2 G, [D,D][D,D][D,C] | [G,B,]6 [C,C][C,C][C,C] | [C,G,]3 [C,C]2 [C,C] [G,C][G,B,]G, | %6
 [C,G,]3 [C,G,]3 [F,A,][F,B,][F,C] | [G,C]3 G,2 G, G,G,G, | [C,G,]6 |] %9
V:4
 x3 | x8 G, | x9 | G,3 G,2 G, x3 | x9 | x8 G, | x9 | x3 G,2 G, G,G,G, | x6 |] %9

